X: 68
T: No_60_Song_Used_in_Treatment_of_Sick_(i).krn
N: Derived from No_60_Song_Used_in_Treatment_of_Sick_(i).krn
%%abc-version 2.0
%%abcx-abcm2ps-target-version 5.9.1 (29 Sep 2008)
%%abc-creator hum2abc beta
%%abcx-conversion-date 2019/03/15 08:36:49
%%humdrum-veritas 2265658001
%%humdrum-veritas-data 2490062401
%%linebreak <none>
%%barnumbers 0
L: 1/8
M: 2/4
K: G clef=bass
[K:clef=bass][M:2/4]E4 | 
DA,D2 ||  
[M:3/4]A,G, G,A,A,2 ||  
[M:2/4]A,B, B,A, | 
B,2G,2 | 
G,4- | 
G,2G,A, ||  
[M:3/4]A,4G,A, | 
A,4G,A, | 
B,/G,3/G,4 ||  
[M:2/4]G,4 ||  
[M:3/4]G,4G,D ||  
[M:2/4]D4 ||  
[M:3/4]A,4G,A, | 
B,4G,2 | 
G,4G,A, | 
A,4G,A, ||  
[M:2/4]B,3G, ||  
[M:3/4]G,4G,A, | 
A,4G,A, | 
A,4G,2 ||  
[M:2/4]G,3G, ||  
[M:3/4]G,4G,B, | 
B,4G,A, | 
A,4G,A, | 
B,3G, (3A,G,A, ||  
[M:2/4]G,2G,3/G,/ | 
G,4 | 
G,4 |]  



